blockchains/ethereum/assets/0xC011A72400E58ecD99Ee497CF89E3775d4bd732F/logo.svg

<svg width="250" height="250" viewBox="0 0 250 250" fill="none" xmlns="http://www.w3.org/2000/svg">
<g clip-path="url(#clip0_37_33691)">
<path d="M60.4 77.9484C58.65 75.9484 56.5 74.9484 53.95 74.9484H1.54995C1.09995 74.9484 0.699951 74.7984 0.399951 74.4984C0.0999512 74.1984 -0.0500488 73.8984 -0.0500488 73.5484V38.2984C-0.0500488 37.9484 0.0999512 37.6484 0.399951 37.3484C0.699951 37.0484 1.04995 36.8984 1.54995 36.8984H56.9C70.85 36.8984 82.9 42.5984 93.05 53.9984L106.5 70.3984L80.3 102.298L60.4 77.9484ZM157.1 53.7984C167.25 42.4984 179.35 36.8984 193.4 36.8984H248.55C249 36.8984 249.35 36.9984 249.6 37.2484C249.85 37.4984 249.95 37.8484 249.95 38.2984V73.5484C249.95 73.8984 249.85 74.2484 249.6 74.4984C249.35 74.7984 249 74.9484 248.55 74.9484H196.25C193.7 74.9484 191.55 75.9484 189.8 77.9484L151.2 124.848L189.95 172.098C191.7 173.998 193.8 174.898 196.25 174.898H248.6C249.05 174.898 249.4 175.048 249.65 175.348C249.9 175.648 250 176.048 250 176.498V211.748C250 212.098 249.9 212.448 249.65 212.698C249.4 212.998 249.05 213.148 248.6 213.148H193.45C179.35 213.148 167.3 207.448 157.3 196.048L125.2 156.948L93.05 195.998C82.9 207.398 70.8 213.098 56.75 213.098H1.54995C1.09995 213.098 0.749951 212.948 0.499951 212.648C0.249951 212.348 0.149951 211.998 0.149951 211.498V176.248C0.149951 175.898 0.249951 175.598 0.499951 175.298C0.749951 174.998 1.09995 174.848 1.54995 174.848H53.9C56.35 174.848 58.5 173.848 60.35 171.848L98.25 125.698L157.1 53.7984Z" fill="#00D1FF"/>
</g>
<defs>
<clipPath id="clip0_37_33691">
<rect width="250" height="250" fill="white"/>
</clipPath>
</defs>
</svg>

<svg fill="none" height="250" viewBox="0 0 250 250" width="250" xmlns="http://www.w3.org/2000/svg" xmlns:xlink="http://www.w3.org/1999/xlink"><clipPath id="a"><path d="m0 0h250v250h-250z"/></clipPath><g clip-path="url(#a)"><path d="m60.4 77.9484c-1.75-2-3.9-3-6.45-3h-52.40005c-.45 0-.849999-.15-1.149999-.45-.2999998-.3-.4499998-.6-.4499998-.95v-35.25c0-.35.15-.65.4499998-.95.3-.3.649999-.45 1.149999-.45h55.35005c13.95 0 26 5.7 36.15 17.1l13.45 16.4-26.2 31.8996zm96.7-24.15c10.15-11.3 22.25-16.9 36.3-16.9h55.15c.45 0 .8.1 1.05.35s.35.6.35 1.05v35.25c0 .35-.1.7-.35.95-.25.3-.6.45-1.05.45h-52.3c-2.55 0-4.7 1-6.45 3l-38.6 46.8996 38.75 47.25c1.75 1.9 3.85 2.8 6.3 2.8h52.35c.45 0 .8.15 1.05.45s.35.7.35 1.15v35.25c0 .35-.1.7-.35.95-.25.3-.6.45-1.05.45h-55.15c-14.1 0-26.15-5.7-36.15-17.1l-32.1-39.1-32.15 39.05c-10.15 11.4-22.25 17.1-36.3 17.1h-55.20005c-.45 0-.799999-.15-1.049999-.45s-.35-.65-.35-1.15v-35.25c0-.35.1-.65.35-.95s.599999-.45 1.049999-.45h52.35005c2.45 0 4.6-1 6.45-3l37.9-46.15z" fill="#00d1ff"/></g></svg>
